X:1
T:Lonely People Are Shameful (Excerpt)
T:孤独的人是可耻的
C:张楚
M:4/4
L:1/8
Q:1/4=72
K:G

| z g z g g E D | z g z g g E D |
| z C z G C D E | z C z G C D E |
| D B A B B2 | B4 |

| z E D D B D B | z E D D E D B |
| D D D D B C B | z E D D E D B |
| D B A G E E | z2 z D z |
| D2 D E B2 | z4 ||
